X:1
T:There's Nae Luck About the House
M:2/4
L:1/8
K:D
 A| d3/2 B/2 A3/2 F/2| G3/2 A/2 Bc| d3/2 B/2 AF| E3 A| d3/2 B/2 A3/2 F/2|\
 G3/2 A/2 B3/2 d/2| A3/2 G/2 F3/2 E/2| D3 A| d3/2 B/2 A3/2 F/2| G3/2 A/2 Bc|\
 d3/2 B/2 AF| E3 A| d3/2 B/2 A3/2 F/2| G3/2 A/2 B3/2 d/2| A3/2 G/2 F3/2 E/2|\
 D3 D/2E/2| F2 F3/2 D/2| G3/2 G/2 GE| F2 F3/2 D/2| E3D/2-E/2| F/2 F3/2 F3/2 D/2|\
 G3/2 A/2 B3/2 d/2| A3/2 G/2 F3/2 E/2| D3||
